X: 89
T: No_4_Song_of_Wapunomitawe.krn
N: Derived from No_4_Song_of_Wapunomitawe.krn
%%abc-version 2.0
%%abcx-abcm2ps-target-version 5.9.1 (29 Sep 2008)
%%abc-creator hum2abc beta
%%abcx-conversion-date 2019/03/15 08:35:45
%%humdrum-veritas 2530878092
%%humdrum-veritas-data 205498393
%%linebreak <none>
%%barnumbers 0
L: 1/8
M: 2/4
K: E clef=bass
[K:clef=bass][M:2/4]z2B,B, | 
C2B,B, ||  
[M:3/4]B,2B,B, B,A, ||  
[M:2/4]G,2F,F, | 
F,2F,F, | 
F, z B,A, | 
G,2F,F, ||  
[M:3/4]F,2F,F, F,G, ||  
[M:2/4]F,2E,E, ||  
[M:3/4]E,2E,E, E,D, ||  
[M:2/4]C, z E,E, ||  
[M:3/4]E,2E,E, E,D, ||  
[M:2/4]C,2B,,B,, | 
B,,2B,,B,, | 
B,, z G,G, | 
G,2F,F, ||  
[M:3/4]F,2F,F, F,G, ||  
[M:2/4]F,2E,E, ||  
[M:3/4]E,2E,E, E,D, ||  
[M:2/4]C, z E,E, ||  
[M:3/4]E,2E,E, E,D, ||  
[M:2/4]C,2B,,B,, | 
B,,2B,,B,, | 
B,, zz2 |]  



